packages/ffe-icons/icons/filled/md/person_pin.svg

<svg xmlns="http://www.w3.org/2000/svg" height="24" viewBox="0 -960 960 960" width="24"><path d="M368.462-180.001H212.309q-30.308 0-51.308-21t-21-51.308v-535.382q0-30.308 21-51.308t51.308-21h535.382q30.308 0 51.308 21t21 51.308v535.382q0 30.308-21 51.308t-51.308 21H591.538l-86.231 86.23q-5.615 5.615-11.846 7.923-6.23 2.308-13.461 2.308t-13.461-2.308q-6.231-2.308-11.846-7.923l-86.231-86.23ZM480-478.461q54.154 0 92.076-37.923 37.923-37.923 37.923-92.077 0-54.153-37.923-92.076Q534.154-738.46 480-738.46q-54.154 0-92.076 37.923-37.923 37.923-37.923 92.076 0 54.154 37.923 92.077 37.922 37.923 92.076 37.923ZM208.462-240h543.076q4.231-4.154 5.769-18.577 1.539-14.422 2.693-19.73-54-53-125.5-83.5t-154.5-30.5q-83 0-154.5 30.5t-125.5 83.5q1.154 5.308 2.693 19.73 1.538 14.423 5.769 18.577Z"/></svg>

<svg xmlns="http://www.w3.org/2000/svg" height="24" viewBox="0 -960 960 960" width="24"><path d="M368.46-180H212.31Q182-180 161-201q-21-21-21-51.31v-535.38Q140-818 161-839q21-21 51.31-21h535.38Q778-860 799-839q21 21 21 51.31v535.38Q820-222 799-201q-21 21-51.31 21H591.54l-86.23 86.23q-5.62 5.61-11.85 7.92-6.23 2.31-13.46 2.31t-13.46-2.31q-6.23-2.31-11.85-7.92L368.46-180ZM480-478.46q54.15 0 92.08-37.92Q610-554.31 610-608.46t-37.92-92.08q-37.93-37.92-92.08-37.92t-92.08 37.92Q350-662.61 350-608.46t37.92 92.08q37.93 37.92 92.08 37.92ZM208.46-240h543.08q4.23-4.15 5.77-18.58 1.54-14.42 2.69-19.73-54-53-125.5-83.5T480-392.31q-83 0-154.5 30.5T200-278.31q1.15 5.31 2.69 19.73 1.54 14.43 5.77 18.58Z"/></svg>
